src/icons/grpc2.svg

<?xml version="1.0" encoding="UTF-8"?>
<svg xmlns="http://www.w3.org/2000/svg" xmlns:xlink="http://www.w3.org/1999/xlink" width="81.231003" height="32" viewBox="0 0 81.231003 32" version="1.1">
<g id="surface1">
<path style=" stroke:none;fill-rule:evenodd;fill:rgb(17.647059%,65.098041%,69.01961%);fill-opacity:1;" d="M 29.363281 12.117188 L 31.589844 12.117188 C 32.277344 12.117188 32.828125 12.023438 33.238281 11.839844 C 33.625 11.675781 33.953125 11.398438 34.179688 11.046875 C 34.394531 10.703125 34.542969 10.28125 34.621094 9.777344 C 34.695312 9.273438 34.734375 8.6875 34.734375 8.027344 C 34.734375 7.363281 34.695312 6.777344 34.621094 6.273438 C 34.542969 5.769531 34.382812 5.339844 34.140625 4.984375 C 33.886719 4.625 33.53125 4.347656 33.121094 4.191406 C 32.695312 4.019531 32.113281 3.933594 31.394531 3.933594 L 29.363281 3.933594 Z M 25.453125 0.242188 L 31.742188 0.242188 C 36.347656 0.242188 38.648438 2.917969 38.648438 8.273438 C 38.648438 9.863281 38.398438 11.226562 37.898438 12.367188 C 37.398438 13.507812 36.523438 14.425781 35.273438 15.117188 L 39.492188 27.609375 L 35.347656 27.609375 L 31.644531 15.722656 L 29.363281 15.722656 L 29.363281 27.609375 L 25.453125 27.609375 Z M 41.792969 0.242188 L 47.660156 0.242188 C 48.746094 0.242188 49.679688 0.382812 50.5 0.667969 C 51.316406 0.949219 52.058594 1.449219 52.722656 2.164062 C 53.386719 2.875 53.859375 3.738281 54.105469 4.679688 C 54.363281 5.640625 54.488281 6.941406 54.488281 8.582031 C 54.488281 9.789062 54.394531 10.648438 54.253906 11.507812 C 54.113281 12.367188 53.660156 13.859375 51.875 14.875 C 50.757812 15.507812 49.160156 15.734375 47.699219 15.734375 L 45.707031 15.734375 L 45.707031 27.609375 L 41.792969 27.609375 Z M 45.703125 12.117188 L 47.585938 12.117188 C 48.378906 12.117188 48.992188 12.015625 49.425781 11.808594 C 49.863281 11.605469 50.183594 11.332031 50.386719 10.984375 C 50.589844 10.632812 50.710938 10.210938 50.75 9.714844 L 50.808594 8.058594 L 50.75 6.453125 C 50.726562 5.992188 50.609375 5.542969 50.40625 5.128906 C 50.214844 4.757812 49.914062 4.464844 49.503906 4.25 C 49.09375 4.039062 48.507812 3.929688 47.742188 3.929688 L 45.707031 3.929688 Z M 69.832031 21.496094 C 69.835938 22.328125 69.671875 23.152344 69.351562 23.917969 C 69.042969 24.667969 68.597656 25.355469 68.03125 25.9375 C 67.464844 26.515625 66.792969 26.984375 66.054688 27.320312 C 65.289062 27.667969 64.457031 27.84375 63.617188 27.839844 C 62.851562 27.835938 62.09375 27.730469 61.355469 27.53125 C 60.597656 27.332031 59.890625 26.96875 59.285156 26.472656 C 58.671875 25.972656 58.164062 25.3125 57.769531 24.492188 C 57.371094 23.671875 57.175781 22.636719 57.175781 21.378906 L 57.175781 6.304688 C 57.175781 5.417969 57.328125 4.574219 57.632812 3.804688 C 57.925781 3.058594 58.371094 2.378906 58.9375 1.808594 C 59.511719 1.234375 60.199219 0.78125 60.953125 0.480469 C 61.734375 0.160156 62.597656 0 63.542969 0 C 64.4375 0 65.269531 0.160156 66.035156 0.480469 C 66.800781 0.800781 67.46875 1.25 68.03125 1.824219 C 68.605469 2.421875 69.054688 3.128906 69.351562 3.902344 C 69.671875 4.707031 69.832031 5.574219 69.832031 6.535156 L 69.832031 8.070312 L 65.921875 8.070312 L 65.921875 6.765625 C 65.921875 5.996094 65.703125 5.328125 65.269531 4.765625 C 64.859375 4.210938 64.195312 3.894531 63.503906 3.921875 C 62.53125 3.921875 61.886719 4.222656 61.566406 4.824219 C 61.246094 5.425781 61.085938 6.1875 61.085938 7.109375 L 61.085938 21.101562 C 61.085938 21.894531 61.257812 22.5625 61.605469 23.097656 C 61.953125 23.636719 62.570312 23.90625 63.464844 23.90625 C 63.722656 23.90625 63.996094 23.863281 64.289062 23.773438 C 64.585938 23.679688 64.863281 23.53125 65.097656 23.328125 C 65.359375 23.097656 65.5625 22.808594 65.691406 22.484375 C 65.84375 22.125 65.921875 21.675781 65.921875 21.136719 L 65.921875 19.792969 L 69.832031 19.792969 Z M 77.5 13.890625 C 77.5 12.890625 76.691406 12.082031 75.695312 12.082031 L 65.925781 12.082031 L 65.925781 15.695312 L 73.890625 15.695312 L 73.890625 19.730469 L 72.664062 19.730469 L 75.714844 24.042969 L 78.769531 19.730469 L 77.5 19.730469 Z M 8.878906 15.730469 L 8.878906 21.148438 C 8.878906 22.277344 9.070312 23.257812 9.453125 24.089844 C 9.808594 24.878906 10.324219 25.585938 10.96875 26.164062 C 11.585938 26.707031 12.304688 27.132812 13.078125 27.414062 C 13.835938 27.691406 14.632812 27.832031 15.4375 27.835938 C 16.242188 27.835938 17.042969 27.691406 17.796875 27.414062 C 18.574219 27.132812 19.289062 26.707031 19.90625 26.164062 C 20.53125 25.613281 21.035156 24.921875 21.421875 24.089844 C 21.804688 23.253906 21.996094 22.277344 21.996094 21.148438 L 21.996094 12.121094 L 14.984375 12.113281 L 14.976562 15.730469 L 18.082031 15.730469 L 18.082031 21.148438 C 18.082031 22.097656 17.820312 22.796875 17.296875 23.246094 C 16.773438 23.695312 16.117188 23.929688 15.4375 23.917969 C 14.753906 23.929688 14.089844 23.691406 13.574219 23.246094 C 13.058594 22.796875 12.789062 22.097656 12.789062 21.148438 L 12.789062 6.699219 C 12.789062 5.75 13.050781 5.054688 13.574219 4.605469 C 14.089844 4.160156 14.753906 3.917969 15.4375 3.929688 C 16.117188 3.917969 16.78125 4.160156 17.296875 4.605469 C 17.820312 5.054688 18.082031 5.75 18.082031 6.699219 L 18.082031 8.082031 L 21.992188 8.082031 L 21.992188 6.699219 C 21.992188 5.597656 21.800781 4.625 21.417969 3.777344 C 21.035156 2.933594 20.53125 2.234375 19.902344 1.683594 C 19.285156 1.136719 18.570312 0.714844 17.792969 0.433594 C 17.039062 0.15625 16.242188 0.015625 15.4375 0.0117188 C 14.632812 0.015625 13.835938 0.15625 13.078125 0.433594 C 12.300781 0.714844 11.585938 1.136719 10.96875 1.683594 C 10.34375 2.234375 9.835938 2.933594 9.453125 3.777344 C 9.066406 4.625 8.878906 5.597656 8.878906 6.699219 L 8.878906 12.117188 L 4.878906 12.117188 L 4.878906 8.082031 L 6.105469 8.082031 L 3.050781 3.769531 L 0 8.082031 L 1.269531 8.082031 L 1.269531 13.925781 C 1.269531 14.921875 2.074219 15.730469 3.070312 15.734375 L 8.878906 15.734375 Z M 8.878906 15.730469 "/>
</g>
</svg>

<svg role="img" viewBox="0 0 81.231 32" xmlns="http://www.w3.org/2000/svg"><path d="M29.363 12.117h2.227c.687 0 1.238-.094 1.648-.277a2.12 2.12 0 0 0 .942-.793c.215-.344.363-.766.441-1.27.074-.504.113-1.09.113-1.75 0-.664-.039-1.25-.113-1.754-.078-.503-.238-.933-.48-1.289a2.226 2.226 0 0 0-1.02-.793c-.426-.171-1.008-.257-1.726-.257h-2.032ZM25.453.242h6.29c4.605 0 6.905 2.676 6.905 8.031 0 1.59-.25 2.954-.75 4.094-.5 1.14-1.375 2.059-2.625 2.75l4.22 12.492h-4.145l-3.703-11.886h-2.282v11.886h-3.91Zm16.34 0h5.867c1.086 0 2.02.14 2.84.426.816.281 1.559.781 2.223 1.496a5.849 5.849 0 0 1 1.382 2.516c.258.96.383 2.261.383 3.902 0 1.207-.093 2.066-.234 2.926-.14.86-.594 2.351-2.379 3.367-1.117.633-2.715.86-4.176.86h-1.992v11.874h-3.914Zm3.91 11.875h1.883c.793 0 1.406-.101 1.84-.308.437-.204.758-.477.96-.825.204-.351.325-.773.364-1.27l.059-1.655-.059-1.606a3.406 3.406 0 0 0-.344-1.324c-.191-.371-.492-.664-.902-.879-.41-.21-.996-.32-1.762-.32h-2.035Zm24.129 9.38a6.23 6.23 0 0 1-.48 2.421 6.369 6.369 0 0 1-1.32 2.02 6.608 6.608 0 0 1-1.977 1.382 5.83 5.83 0 0 1-2.438.52 8.803 8.803 0 0 1-2.262-.309 5.464 5.464 0 0 1-2.07-1.058c-.613-.5-1.12-1.16-1.515-1.98-.399-.821-.594-1.856-.594-3.114V6.305c0-.887.152-1.73.457-2.5a5.878 5.878 0 0 1 1.304-1.996A6.02 6.02 0 0 1 60.954.48c.781-.32 1.645-.48 2.59-.48.895 0 1.727.16 2.492.48.766.32 1.434.77 1.996 1.344a6.159 6.159 0 0 1 1.32 2.078c.32.805.481 1.672.481 2.633V8.07h-3.91V6.766c0-.77-.219-1.438-.652-2a2.1 2.1 0 0 0-1.766-.844c-.973 0-1.617.3-1.938.902-.32.602-.48 1.364-.48 2.285v13.993c0 .793.172 1.46.52 1.996.347.539.964.808 1.859.808.258 0 .531-.043.824-.133a2.29 2.29 0 0 0 .809-.445 2.25 2.25 0 0 0 .593-.844c.153-.359.23-.808.23-1.347v-1.344h3.911ZM77.5 13.89c0-1-.809-1.809-1.805-1.809h-9.77v3.613h7.966v4.035h-1.227l3.05 4.313 3.056-4.313H77.5ZM8.879 15.73v5.417c0 1.13.191 2.11.574 2.942a6.15 6.15 0 0 0 1.516 2.074 6.58 6.58 0 0 0 2.11 1.25 6.86 6.86 0 0 0 2.358.422 6.77 6.77 0 0 0 2.36-.422 6.56 6.56 0 0 0 2.11-1.25c.624-.55 1.128-1.242 1.515-2.074.383-.836.574-1.813.574-2.942V12.12l-7.012-.008-.007 3.617h3.105v5.418c0 .95-.262 1.649-.785 2.098-.524.45-1.18.684-1.86.672a2.777 2.777 0 0 1-1.863-.672c-.515-.45-.785-1.148-.785-2.098V6.7c0-.949.262-1.644.785-2.094a2.78 2.78 0 0 1 1.864-.675c.68-.012 1.343.23 1.859.675.523.45.785 1.145.785 2.094v1.383h3.91V6.699c0-1.101-.191-2.074-.574-2.922-.383-.843-.887-1.543-1.516-2.093a6.491 6.491 0 0 0-2.109-1.25 6.915 6.915 0 0 0-2.355-.422 6.92 6.92 0 0 0-2.36.422 6.52 6.52 0 0 0-2.11 1.25c-.624.55-1.132 1.25-1.515 2.093-.387.848-.574 1.82-.574 2.922v5.418h-4V8.082h1.226L3.051 3.77 0 8.082h1.27v5.844c0 .996.804 1.804 1.8 1.808h5.81Zm0 0" style="stroke:none;fill-rule:evenodd;fill:rgb(17.647059%,65.098041%,69.01961%);fill-opacity:1"/></svg>
